X: 39489
T: Tatter Jack Walsh
R: jig
M: 6/8
K: Dmixolydian
|:f3 ded|cAB cde|dcA GFG|Add efg|
afd g/f/ed|cAB cde|dcA GFG|1 Ad^c d2e:|2 Ad^c d2A||
|:dfa afa|dfa a2f|g3 ged|^c/d/ef g3|
afd g/f/ed|cAB cde|dcA GFG|1 Ad^c d2A:|Ad^c d2e||

